images/client-logos/audi.svg

<svg height="248" viewBox="0 0 400 248" width="400" xmlns="http://www.w3.org/2000/svg"><path d="m337.001754 245.615789v-53.089473h-21.910526v53.089473zm-115.992982-22.043859v-30.242105h-21.236842v23.117543c0 6.719299-.268421 8.603509-.670176 10.350878-1.478947 4.84035-6.587719 6.985965-11.82807 6.985965-7.25614 0-10.617544-2.821053-11.961754-7.256141-.402807-1.475438-.537018-3.087719-.671228-4.701754-.134211-1.747369 0-3.631579 0-5.642105v-22.852632h-21.504737v30.377193c0 6.857895 2.286667 11.963158 6.047895 15.45614 6.450877 6.319299 17.338947 8.2 27.417894 8.2 12.231579 0 21.640351-1.747368 28.35965-8.331579 3.496491-3.363158 6.047368-7.798245 6.047368-15.461403zm-104.297368-3.763158c-1.064737-.185965-2.143685-.273684-3.224211-.266667h-24.1921053c-1.2105263 0-2.5552631.135088-3.2264912.266667.402807-.405263 1.2105263-1.208772 2.0159649-2.284211l10.885614-18.01228c1.4789476-2.417544 2.1501756-4.029825 2.4185966-4.701755.268596.67193.939824 2.284211 2.418772 4.840351l11.156316 18.145614c.539298.803509 1.344736 1.607018 1.747544 2.012281zm40.590701 25.807017-48.386316-72.575964h-27.1477188l7.1219298 8.467193c.134386.133333.4050877.266666.6714035.405263-.2685965.133333-.5370175.264912-.6714035.4l-42.2017544 63.303508h24.4605263l6.5873685-10.887719c.268421-.536842.4026315-1.075438.4026315-1.342105.2685965 0 .9421053.266667 1.6133334.266667h43.6807017c.671404 0 1.208246-.135088 1.476842-.266667-.024737.377193.069123.754386.268421 1.075439l6.85579 11.154385zm151.878597-27.282456c0-5.915789-2.421053-12.771929-9.945614-22.314035l-18.147369-22.981754h-25.268421l14.380702 16.127368c2.421053 2.689474 5.512281 5.107018 5.512281 5.107018-3.492983-2.019298-7.92807-2.821053-11.422807-2.821053-8.333334 0-16.803509 1.747369-24.326316 5.91579-8.066667 4.429824-13.44386 11.824561-13.44386 21.638596 0 7.524562 3.361404 13.307018 7.661404 17.740351 9.680702 9.675439 27.282456 10.617544 33.735087 10.617544 9.540351 0 24.461404-2.149123 32.931579-9.810526 4.973685-4.57193 8.333334-10.885965 8.333334-19.219299zm-20.968421.67193c0 5.510526-3.631579 9.675439-8.2 11.959649-3.763158 2.017544-8.2 2.554386-12.096492 2.554386-3.894736 0-8.466666-.807017-12.229824-2.689473-4.568421-2.284211-8.066667-6.719299-8.066667-11.557895 0-5.777193 4.435088-10.350877 9.678948-12.635088 3.22807-1.475438 7.124561-2.014035 10.21228-2.014035 2.961404 0 7.261404.4 10.622807 1.747368 6.049123 2.550878 10.078948 7.389474 10.078948 12.635088zm41.829824-219.00028005c-15.736842-.02540576-31.019298 5.28368372-43.349123 15.06085915-12.331578-9.77780701-27.61228-15.08698403-43.349122-15.06085915-15.735088-.0243519-31.01579 5.28464863-43.345614 15.06085915-12.329825-9.7782807-27.610527-15.08754806-43.346842-15.06085915-15.735965-.0243519-31.015615 5.28464863-43.346316 15.06085915-12.330527-9.77652631-27.6103512-15.08557052-43.3463161-15.06085915-38.6157894 0-69.90930137 31.29133285-69.90930137 69.90922755 0 38.6135085 31.29123127 69.9094735 69.90930137 69.9094735 15.7359649.024035 31.0156141-5.284912 43.3463161-15.060877 12.330526 9.776491 27.610351 15.085439 43.346316 15.060877 15.736315.026316 31.017017-5.282982 43.346842-15.060877 12.329824 9.77614 27.610526 15.085088 43.345614 15.060877 15.736842.02579 31.017544-5.283333 43.349122-15.060877 12.329825 9.777544 27.610527 15.086667 43.349123 15.060877 38.614035 0 69.907018-31.293684 69.907018-69.9094735 0-38.615614-31.292983-69.90922755-69.907018-69.90922755zm-228.175438 113.33747305c-8.9082459 6.498597-20.0371933 10.464562-31.9078951 10.464562-29.7894737 0-53.8950526-24.1031584-53.8950526-53.8928075 0-29.7894737 24.1055789-53.8949824 53.8950526-53.8949824 11.8707018 0 22.9929825 3.9683158 31.9078951 10.4690175-9.822281 12.3401755-15.1550881 27.6542105-15.122281 43.4259649.0073684 15.7659649 5.335614 31.0677195 15.122281 43.4282455zm11.440701-11.406491c-6.870175-9.2607018-10.568947-20.4908773-10.546491-32.0217545-.028947-11.5317544 3.670527-22.7640351 10.546491-32.0215789 6.874737 9.2582456 10.57386 20.4901754 10.546492 32.0215789.021579 11.5307018-3.677018 22.7607018-10.546492 32.0217545zm75.254036 11.406491c-9.254386 6.814035-20.453509 10.476491-31.946316 10.448772-11.469299.023333-22.642281-3.639649-31.871579-10.448772 9.787544-12.359123 15.115965-27.6605262 15.12228-43.4259648.032807-15.7717544-5.3-31.0857894-15.12228-43.4259649 9.228421-6.8108772 20.40193-10.4747719 31.871579-10.4508245 11.957193 0 23.00421 3.8681929 31.946316 10.4508245-9.822808 12.3401755-15.154913 27.6542105-15.122106 43.4259649.006667 15.7652632 5.334386 31.0666668 15.122106 43.4259648zm11.436842-11.406491c-6.870176-9.2607018-10.570176-20.4908773-10.547369-32.0217545-.02807-11.5315789 3.67193-22.7635087 10.547369-32.0215789 6.875438 9.2575438 10.575438 20.4896491 10.547368 32.0215789.022807 11.5310527-3.677193 22.7614035-10.547368 32.0217545zm75.25614 11.406491c-8.942105 6.585088-19.989474 10.448772-31.94386 10.448772-11.95614 0-22.931579-3.870526-31.873684-10.448772 9.787719-12.358596 15.11579-27.6603507 15.121053-43.4259648.033333-15.7717544-5.3-31.0857894-15.121053-43.4259649 8.942105-6.5803509 19.917544-10.4508245 31.873684-10.4508245 11.954386 0 23.001755 3.8681929 31.94386 10.4508245-9.821053 12.3407018-15.154386 27.654386-15.122807 43.4259649.008772 15.7650877 5.336842 31.0661408 15.122807 43.4259648zm11.440351-11.406491c-6.870176-9.2607018-10.568421-20.4908773-10.545614-32.0217545-.029825-11.5319298 3.668421-22.7643859 10.545614-32.0215789 6.875438 9.2582456 10.573684 20.4901754 10.547368 32.0215789.019299 11.5305263-3.678947 22.7603509-10.547368 32.0217545zm43.347368 21.871053c-11.875438 0-23.003509-3.965965-31.908772-10.464562 9.785965-12.359649 15.114035-27.6607016 15.122807-43.4259648.031579-15.7715789-5.301754-31.0852631-15.122807-43.4259649 8.91579-6.498421 20.035088-10.4690175 31.908772-10.4690175 29.784211 0 53.894737 24.1055087 53.894737 53.8949824 0 29.7850877-24.110526 53.8905268-53.894737 53.8905268z" fill="#e3e8f0" fill-rule="evenodd"/></svg>

<?xml version="1.0" encoding="UTF-8"?>
<svg width="400px" height="248px" viewBox="0 0 400 248" version="1.1" xmlns="http://www.w3.org/2000/svg" xmlns:xlink="http://www.w3.org/1999/xlink">
    <!-- Generator: Sketch 52.4 (67378) - http://www.bohemiancoding.com/sketch -->
    <title>audi@1x</title>
    <desc>Created with Sketch.</desc>
    <g id="Page-1" stroke="none" stroke-width="1" fill="none" fill-rule="evenodd">
        <g id="audi" fill="#E3E8F0">
            <path d="M337.001754,245.615789 L337.001754,192.526316 L315.091228,192.526316 L315.091228,245.615789 L337.001754,245.615789 Z M221.008772,223.57193 L221.008772,193.329825 L199.77193,193.329825 L199.77193,216.447368 C199.77193,223.166667 199.503509,225.050877 199.101754,226.798246 C197.622807,231.638596 192.514035,233.784211 187.273684,233.784211 C180.017544,233.784211 176.65614,230.963158 175.31193,226.52807 C174.909123,225.052632 174.774912,223.440351 174.640702,221.826316 C174.506491,220.078947 174.640702,218.194737 174.640702,216.184211 L174.640702,193.331579 L153.135965,193.331579 L153.135965,223.708772 C153.135965,230.566667 155.422632,235.67193 159.18386,239.164912 C165.634737,245.484211 176.522807,247.364912 186.601754,247.364912 C198.833333,247.364912 208.242105,245.617544 214.961404,239.033333 C218.457895,235.670175 221.008772,231.235088 221.008772,223.57193 Z M116.711404,219.808772 C115.646667,219.622807 114.567719,219.535088 113.487193,219.542105 L89.2950877,219.542105 C88.0845614,219.542105 86.7398246,219.677193 86.0685965,219.808772 C86.4714035,219.403509 87.2791228,218.6 88.0845614,217.524561 L98.9701754,199.512281 C100.449123,197.094737 101.120351,195.482456 101.388772,194.810526 C101.657368,195.482456 102.328596,197.094737 103.807544,199.650877 L114.96386,217.796491 C115.503158,218.6 116.308596,219.403509 116.711404,219.808772 Z M157.302105,245.615789 L108.915789,173.039825 L81.7680702,173.039825 L88.89,181.507018 C89.024386,181.640351 89.2950877,181.773684 89.5614035,181.912281 C89.292807,182.045614 89.024386,182.177193 88.89,182.312281 L46.6882456,245.615789 L71.1487719,245.615789 L77.7361404,234.72807 C78.0045614,234.191228 78.1387719,233.652632 78.1387719,233.385965 C78.4073684,233.385965 79.0808772,233.652632 79.7521053,233.652632 L123.432807,233.652632 C124.104211,233.652632 124.641053,233.517544 124.909649,233.385965 C124.884912,233.763158 124.978772,234.140351 125.17807,234.461404 L132.03386,245.615789 L157.302105,245.615789 Z M309.180702,218.333333 C309.180702,212.417544 306.759649,205.561404 299.235088,196.019298 L281.087719,173.037544 L255.819298,173.037544 L270.2,189.164912 C272.621053,191.854386 275.712281,194.27193 275.712281,194.27193 C272.219298,192.252632 267.784211,191.450877 264.289474,191.450877 C255.95614,191.450877 247.485965,193.198246 239.963158,197.366667 C231.896491,201.796491 226.519298,209.191228 226.519298,219.005263 C226.519298,226.529825 229.880702,232.312281 234.180702,236.745614 C243.861404,246.421053 261.463158,247.363158 267.915789,247.363158 C277.45614,247.363158 292.377193,245.214035 300.847368,237.552632 C305.821053,232.980702 309.180702,226.666667 309.180702,218.333333 Z M288.212281,219.005263 C288.212281,224.515789 284.580702,228.680702 280.012281,230.964912 C276.249123,232.982456 271.812281,233.519298 267.915789,233.519298 C264.021053,233.519298 259.449123,232.712281 255.685965,230.829825 C251.117544,228.545614 247.619298,224.110526 247.619298,219.27193 C247.619298,213.494737 252.054386,208.921053 257.298246,206.636842 C260.526316,205.161404 264.422807,204.622807 267.510526,204.622807 C270.47193,204.622807 274.77193,205.022807 278.133333,206.370175 C284.182456,208.921053 288.212281,213.759649 288.212281,219.005263 Z M330.042105,0.00498294737 C314.305263,-0.020422807 299.022807,5.28866667 286.692982,15.0658421 C274.361404,5.28803509 259.080702,-0.0211419298 243.34386,0.00498294737 C227.608772,-0.0193689474 212.32807,5.28963158 199.998246,15.0658421 C187.668421,5.2875614 172.387719,-0.0217059649 156.651404,0.00498294737 C140.915439,-0.0193689474 125.635789,5.28963158 113.305088,15.0658421 C100.974561,5.28931579 85.6947368,-0.0197284211 69.9587719,0.00498294737 C31.3429825,0.00498294737 0.0494705263,31.2963158 0.0494705263,69.9142105 C0.0494705263,108.527719 31.3407018,139.823684 69.9587719,139.823684 C85.6947368,139.847719 100.974386,134.538772 113.305088,124.762807 C125.635614,134.539298 140.915439,139.848246 156.651404,139.823684 C172.387719,139.85 187.668421,134.540702 199.998246,124.762807 C212.32807,134.538947 227.608772,139.847895 243.34386,139.823684 C259.080702,139.849474 274.361404,134.540351 286.692982,124.762807 C299.022807,134.540351 314.303509,139.849474 330.042105,139.823684 C368.65614,139.823684 399.949123,108.53 399.949123,69.9142105 C399.949123,31.2985965 368.65614,0.00498294737 330.042105,0.00498294737 Z M101.866667,113.342456 C92.9584211,119.841053 81.8294737,123.807018 69.9587719,123.807018 C40.1692982,123.807018 16.0637193,99.7038596 16.0637193,69.9142105 C16.0637193,40.1247368 40.1692982,16.0192281 69.9587719,16.0192281 C81.8294737,16.0192281 92.9517544,19.9875439 101.866667,26.4882456 C92.044386,38.8284211 86.7115789,54.1424561 86.744386,69.9142105 C86.7517544,85.6801754 92.08,100.98193 101.866667,113.342456 Z M113.307368,101.935965 C106.437193,92.6752632 102.738421,81.4450877 102.760877,69.9142105 C102.73193,58.3824561 106.431404,47.1501754 113.307368,37.8926316 C120.182105,47.1508772 123.881228,58.382807 123.85386,69.9142105 C123.875439,81.4449123 120.176842,92.6749123 113.307368,101.935965 Z M188.561404,113.342456 C179.307018,120.156491 168.107895,123.818947 156.615088,123.791228 C145.145789,123.814561 133.972807,120.151579 124.743509,113.342456 C134.531053,100.983333 139.859474,85.6819298 139.865789,69.9164912 C139.898596,54.1447368 134.565789,38.8307018 124.743509,26.4905263 C133.97193,19.6796491 145.145439,16.0157544 156.615088,16.0397018 C168.572281,16.0397018 179.619298,19.9078947 188.561404,26.4905263 C178.738596,38.8307018 173.406491,54.1447368 173.439298,69.9164912 C173.445965,85.6817544 178.773684,100.983158 188.561404,113.342456 Z M199.998246,101.935965 C193.12807,92.6752632 189.42807,81.4450877 189.450877,69.9142105 C189.422807,58.3826316 193.122807,47.1507018 199.998246,37.8926316 C206.873684,47.1501754 210.573684,58.3822807 210.545614,69.9142105 C210.568421,81.4452632 206.868421,92.675614 199.998246,101.935965 Z M275.254386,113.342456 C266.312281,119.927544 255.264912,123.791228 243.310526,123.791228 C231.354386,123.791228 220.378947,119.920702 211.436842,113.342456 C221.224561,100.98386 226.552632,85.6821053 226.557895,69.9164912 C226.591228,54.1447368 221.257895,38.8307018 211.436842,26.4905263 C220.378947,19.9101754 231.354386,16.0397018 243.310526,16.0397018 C255.264912,16.0397018 266.312281,19.9078947 275.254386,26.4905263 C265.433333,38.8312281 260.1,54.1449123 260.131579,69.9164912 C260.140351,85.6815789 265.468421,100.982632 275.254386,113.342456 Z M286.694737,101.935965 C279.824561,92.6752632 276.126316,81.4450877 276.149123,69.9142105 C276.119298,58.3822807 279.817544,47.1498246 286.694737,37.8926316 C293.570175,47.1508772 297.268421,58.382807 297.242105,69.9142105 C297.261404,81.4447368 293.563158,92.6745614 286.694737,101.935965 Z M330.042105,123.807018 C318.166667,123.807018 307.038596,119.841053 298.133333,113.342456 C307.919298,100.982807 313.247368,85.6817544 313.25614,69.9164912 C313.287719,54.1449123 307.954386,38.8312281 298.133333,26.4905263 C307.049123,19.9921053 318.168421,16.0215088 330.042105,16.0215088 C359.826316,16.0215088 383.936842,40.1270175 383.936842,69.9164912 C383.936842,99.7015789 359.826316,123.807018 330.042105,123.807018 Z" id="Shape"></path>
        </g>
    </g>
</svg>
